X: 34602
T: River, The
R: hornpipe
M: 4/4
K: Dmajor
BAG|:FEDF AFAd|BcdB ADFA|BDGB ADFA|EFGF EGFE|
FDAF AFAd|BcdB ADFA|GDGB AGFE|1 EDDE DBAG:|2 EDDE DABc||
dBGd edcB|AFAd AFFA|BA^GA BcdB|ABA^G AFFA|
BGDd edcB|AFAd Adfa|gdBG AGFE|1 EDDE DABc:|2 EDDE DBAG||

